!!!OTL: 66. Gas-nign
!!!Genre:	Gas-nign
!!!Mode:	Freygish
!!!Listening/dance:	listening
!!!One_Mode:	yes
**kern
*I"P1
*clefG2
*k[b-e-a-]
*G:frey
*M3/4
*>A
4g
=1
4ee-
4ee-
4ee-
=2
4.dd
8cc
8bnL
8ccJ
=3
4dd
4dd
4dd
=4
2cc
4bn
=5
4.cc
8bn
8ccL
8bJ
=6
4.cc
8ee-
8ddL
8ccJ
=7
4.dd
8cc
8bnL
8a-J
=8
2g
4g
=9
4cc
4cc
4cc
=10
4.bn
8a-
4g
=11
4bn
8ddL
8ccJ
8bL
8a-J
=12
8gL
8a-J
4.f
8ff
=13
8ffL
8ee-
8dd
8ccJ
8bnL
8ccJ
=14
4.bn
8a-
8gL
8fJ
=15
2g
4g
=||
4g
4r
=16||
*>B
4gg
=17
2gg
4gg
=18
2gg
4gg
=19
2gg
4gg
=20
4gg
4r
4gg
=21
4gg
4ff
4ee-
=22
2dd
4cc
=23
4.ff
8gg
8aa-L
8ggJ
=24
4.ff
8ee-
8ddL
8ccJ
=25
4.bn
8r
8gL
8gJ
=26
4bn
4cc
4dd
=27
4ee-
4dd
4cc
=28
4bn
8ddL
8cc
8b
8a-J
=29
(8gL
8a-J)
4f
4ff
=30
4ff
8ffL
8ee-
8dd
8ccJ
=31
4.bn
8a-
8gL
8fJ
=32
(8gL
8a-J)
(8gL
8a-J)
(8gL
8a-J)
=33
2g
==
*-
